icon-themes/sifr_svg/cmd/lc_gluevertalignbottom.svg

<svg viewBox="0 0 24 24" xmlns="http://www.w3.org/2000/svg"><g fill="#555753"><path d="m22 22h-10v-.002c-.000911-.711574-.16353-1.377316-.433594-1.998h8.433594v-16h-16v4.566406c-1.185038.699567-2 1.976737-2 3.433594v-10h20zm-8-10c0 1.108-.892 2-2 2h-4v4.541016c1.236022.713616 1.998173 2.03175 2 3.458984h-8c.0018-1.427234.763978-2.745368 2-3.458984v-6.541016c0-1.1.91-2 2-2h6c1.108 0 2 .892 2 2z"/><path d="m14 6v4h4v4h-4v4h-4v-4h-4v-4h4v-4z" opacity=".35"/></g></svg>

<svg xmlns="http://www.w3.org/2000/svg" viewBox="0 0 24 24">
  <path
     style="fill:#555753"
     d="M 22,22 H 12 V 21.998 C 11.999089,21.286426 11.83647,20.620684 11.566406,20 H 20 V 4 H 4 V 8.566406 C 2.814962,9.265973 2,10.543143 2,12 V 2 H 22 Z M 14,12 c 0,1.108 -0.892,2 -2,2 H 8 v 4.541016 C 9.236022,19.254632 9.998173,20.572766 10,22 H 2 C 2.0018,20.572766 2.763978,19.254632 4,18.541016 V 12 c 0,-1.1 0.91,-2 2,-2 h 6 c 1.108,0 2,0.892 2,2 z"
     />
  <path
     style="opacity:0.35;fill:#555753"
     d="m 14,6 v 4 h 4 v 4 h -4 v 4 H 10 V 14 H 6 v -4 h 4 V 6 Z"
     />
</svg>
